X: 1
T: the Dusty Miller
R: jig
Z: John Chambers <jc:trillian.mit.edu>
M: 6/8
L: 1/8
K: G
|:"G"B>cd    BAG | "D"FAA "G"BAG | "G"B>cd BAG | "(D)"DGG "G"BAG :| "G"B<dd   gfg | "D"aAA "G"BAG |
| "G"B<dd "D"gef | "G"gGG    BAG ||"G"B<dd gfg |  "D"aAA  "G"BAG  | "G"Bdg "D"fga | "G"gag    dBG |]
